X:1
T:9 Lieder and Songs, Op.32
T:Ich schleich umher betrübt
T:3. Ich schleich umher betrübt
T:Johannes Brahms
T:August von Platen
T:9 Lieder and Songs, Op.32
T:Creative Commons copyright waiver (CC0 1.0 Universal) 
C:Johannes Brahms
Z:August von Platen
Z:Creative Commons copyright waiver (CC0 1.0 Universal)
Z:
%%score 1 { ( 2 4 ) | 3 }
L:1/8
Q:1/4=85
M:3/4
K:F
V:1 treble nm="Singstimme\nVoice"
V:2 treble nm="Pianoforte"
V:4 treble 
V:3 bass 
V:1
"^Mässig" D2 | D4 D2 | F4 F2 | E4 E2 | G4 B2 | A4 B2 | A2 ^G2 =G2 | F4 D2 | E4 z2 | z6 | D2 G2 B2 | %11
w: 1. Ich|schleich um-|her be-|trübt und|stumm, du|fragst, o|fra- ge mich|nicht wa-|rum?||Das Herz er-|
w: 2. Der|Baum ver-|dorrt, der|Duft ver-|geht, die|Blät- ter|lie- gen so|gelb im|Beet,||es stürmt ein|
 c4 F2 | F2 A2 c2 | _d6 | ^c2 c2 =d2 | (d2 B2) G2 | (A2 F2) E2 | G4 z2 | z2 z2!mf!!>(! B2 | %19
w: schüt- tert|so man- che|Pein!|und könnt ich|je _ zu|dü- * ster|sein,|zu|
w: Schau- er|mit Macht her-|ein,|und könnt ich|je _ zu|dü- * ster|sein,|zu|
 (A2 F2) E2!>)! |!p! D4 z2 |1 z2 z2 :|2 z6 | z2 !fermata!z2 |] %24
w: dü- * ster|sein?||||
w: dü- * ster|sein?||||
V:2
 D2 | D4 D2 | [DF]4 [DF]2 | [DE]4 [DE]2 | [DEA]4 [DGB]2 | [GA]4 [GB]2 | [EA]2 [D^G]2 [^C=G]2 | %7
 [DF]4 [=B,D]2 | [A,^CE]4 [F,^G,D]2 | [A,^CE]6 | D2 [DG]2 [DGB]2 | [FAc]4 z2 | F2 [FA]2 [FAc]2 | %13
 [FB_d]4 x2 | [^CA^c]4 [=DA=d]2 | [DBd]4 [DEG]2 | [DF]4 [^CE]2 | [DG]4 [^C-E^c-]2 | %18
 [Cc]2 [Dd]2 [DE]2 | [DF]4 [^CE]2 | D4 z2 |1 z2 z2 :|2 z6 |[K:bass] !fermata![D,F,A,D]4 |] %24
V:3
!p! z2 | z (B,A,F,E,D,) | z (B,,A,,F,,E,,D,,) | z (CB,G,F,E,) | z (C,B,,G,,F,,E,,) | %5
 z (D^CE,) z A,, | z (^C=B,D,) z A,, | z (A,_A,D,) z D,, | z (F,E,A,,) z D,, | z (F,E,A,,) z A,,, | %10
!<(! (3z D,,D, (3z B,,,B,, (3z G,,,!<)!G,, |!f! (3z (F,,,F,, (3A,,C,F, (3A,[I:staff -1]CE) | %12
!<(![I:staff +1] (3z A,,A, (3z C,C (3z F,,!<)!!f!F, | %13
!f! (3z (B,,,B,, (3_D,F,B,[I:staff -1] (3_DFB) |[I:staff +1] (3(F,,,F,,A,, (3A,F,A,, (3F,D,A,,) | %15
 (3(G,,,G,,B,, (3B,G,B,, (3G,D,B,,) |!>(! (3(A,,,A,,D, (3A,F,A,, (3A,E,!>)!!mp!A,,) | %17
!<(! (3(B,,,B,,D, (3B,G,B,,!<)!!f! (3E,^C,B,,) |!>(! (3(B,,,B,,F, (3B,!>)!D,B,, (3E,D,G,,) | %19
!>(! (3(A,,,A,,D, (3A,F,A,, (3A,!>)!E,A,,) |"^dim." (3(A,D,A,, (3F,D,A,, (3D,!>(!A,,F,,) |1 %21
 (A,,F,,E,,!>)!!pp!D,,) :|2!>(! (A,,F,, E,,2 D,,2)!>)! |!p! !fermata![D,,,D,,]4 |] %24
V:4
 x2 | x6 | x6 | x6 | x6 | x6 | x6 | x6 | x6 | x6 | x6 | x6 | x6 | x6 | x6 | x6 | x6 | x6 | F4 x2 | %19
 x6 | x6 |1 x4 :|2 x6 |[K:bass] x4 |] %24

